X: 2108
T: JOHNNIE PRINGLE
C: W. MARCHALL
Q: "Strathspey."
R: Strathspey.
%R: strathspey
B: James Kerr "Merry Melodies" v.2 p.14 #108
Z: 2016 John Chambers <jc:trillian.mit.edu>
M: C
L: 1/16
K: G
uD2 |:\
vDG3 Gg3 vd3vG B4 | vDG3 Gg3 vd3uG Bg3 |\
DG3 Gg3 vd3vG B4 | c3AB3G A3GE3F ::\
Gg3 g3ua (ba)gf g4 |
ve3vfug3ua vb3uevgb3 |\
[1 ve3vfug3ue vdB3B3ud | ve3vgud3uB cBAG E3F :|\
[2 ve3uf agfe dB3B3ud | e3gd3B cBAG E2 |]

%%sep 1 1 500
%%sep 1 1 500

